X:1
T: Taymouth Hermitage
C:
R:Jig
Q:180
K:D
M:6/8
L:1/16
|:FG|A2F2D2 A2F2D2|G2E2=C2 C4FG|A2F2D2 A2F2D2|A2F2D2 A2F2A2|
B2G2B2 A2F2D2|G2E2=C2 C4FG|A2F2A2 d2A2G2|F6 D4:|
|:g2|f2d2d2 d2e2f2|g2e2=c2 c4g2|f2d2d2 d2e2f2|g6e4g2|
f2d2d2 d2e2f2|g2e2=c2 c4g2|f2a2f2 g2e2g2|f6d4:|
